!!!OTL: 161. Der verhaengnissvolle Traum.
!!!COM: I. Umlauf
!!!ODT: 1780
!!!ARE: Europa, Mitteleuropa, Deutschland
!!!SCT: B0161
!!!TXL: @@DE
!!!YEM: Copyright 1995, estate of Helmut Schaffrath.
**kern	**text
*ICvox	*
*Ivox	*
*M2/4	*
*clefF4	*
*k[b-e-a-]	*
*E-:	*
!LO:TX:a:t=Gehend.	!
{8BB-	Ʒu
=1	=1
8E-	Stef-
8E-	-fen
8D	ſprach
8BB-	im
=2	=2
8.FL	Trau-
16GJ	.
8E-}	-me
{8B-	ein
=3	=3
8B-	grau-
16A-L	-es
16GJ	.
16GL	Männchen
16FJ	.
16FL	.
16E-J	.
=4	=4
(4G	klein:
8F)}	.
{8BB-	"Der
=5	=5
8E-	Schatʒ
8E-	im
8D	hoh-
8BB-	-len
=6	=6
8.FL	Bau-
16GJ	.
8E-}	-me
{8B-	ſoll
=7	=7
8B-	dir
16A-L	be-
16GJ	.
8G	-ſchee-
8F	-ret
=8	=8
4E-	ſein!
8r}	.
{8BB-	Geh'
=9	=9
8AA	um
8BB-	die
8C-	ʒwölf-
8BB-	-te
=10	=10
4G-^	Stun-
8F}	-de
{8B-	auf
=11	=11
8A	je-
8G-	-nen
8F	Kreuʒweg
8E-	.
=12	=12
4.BB-;}	ʒu;
{8BB-	dort
=13	=13
8E-	halt
8E-	ich
8D	Nachts
8BB-	die
=14	=14
8.FL	Run-
16GJ	.
8E-}	-de,
{8B-	mein
=15	=15
8B-	Geiſt
16A-L	hat
16GJ	.
8G	kei-
8F	-ne
=16	=16
4E-	Ruh,
8r}	.
{8AA-	mein
=17	=17
8GG	Geiſt
8C	hat
8FF	kei-
8BB-	-ne
=18	=18
4.EE-;}	Ruh!"
==	==
!!!AGN: Ballade, Romanze
!!!GTL: Balladen und Romanzen
!!!ONB: ESAC (Essen Associative Code) Database: BOEHME
!!!AMT: simple duple
!!!AIN: vox
!!!EED: Helmut Schaffrath
!!!EEV: 1.0
!!@@COMMENT:"Romanʒe für Baß aus dem Singſpiel Das Jrrlicht". Dichter unbekannt (vermuthlich Bretʒner).
!!Muſik von Jgnaʒ Umlauf. Wien, 1782."
!!@@END:
!!!URL-scan: https://archive.org/details/BoehmeVtLieder1895/page/n159/mode/2up
!!!ENC: Anna Maria Matuszewska
!!!EEV: 2024/19/06
*-	*-
